!!!OTL: 346. Bedenklichkeiten.
!!!ARE: Europa, Mitteleuropa, Deutschland
!!!SCT: B0346
!!!TXO: @@ES
!!!TXL: @@DE
!!!YEM: Copyright 1995, estate of Helmut Schaffrath.
**kern	**text
*ICvox	*
*Ivox	*
*clefG2	*
*M3/8	*
*k[f#]	*
*G:	*
=1	=1
!LO:TX:a:t=Munter.	!
{8g	Grad'
16gL	aus
16f#J	.
16gL	dem
16aJ	.
=2	=2
8b	Wirthshaus
8g	.
8d}	nun
=3	=3
{8d	komm
8.e	ich
16B	her-
=4	=4
(4d	-aus!
8c)}	.
=5	=5
{8a	Straße,
16aL	.
16g#J	.
16aL	wie
16bJ	.
=6	=6
8cc	wun-
8a	-der-
8f#}	-lich
=7	=7
{8d	ſiehſt
8.e	du
16A	mir
=8	=8
(4c	aus?
8B)}	.
=9	=9
{8g	Rech-
16gL	-ter
16f#J	.
16gL	Hand,
16aJ	.
=10	=10
8b	lin-
8g	-ker
8d}	Hand,
=11	=11
{8d	bei-
8.e	-des
16B	ver-
=12	=12
(4d	-tauſcht,
8c)}	.
=13	=13
{8a	Stra-
16aL	-ße,
16g#J	.
16aL	ich
16bJ	.
=14	=14
8cc	merk'
8a	es
8f#}	wohl,
=15	=15
{8d	du
8e	biſt
8f#	berauſcht!
=16	=16
4g	.
8r}	.
=17||	=17||
{8b	La
8.b	la
16a	la
=18	=18
8cc	la
4b}	la,
=19	=19
{8g	la
8b	la
8dd	la
=20	=20
(8cc#J	la,
8.ddJ)}	.
{16b	la
=21	=21
8a	la
8.a	la
16g#	la
=22	=22
8b	la
4a}	la,
=23	=23
{8cc	la
8a	la
8f#	la
=24	=24
4g	la.
8r}	.
==	==
!!!AGN: Trink - Lied
!!!GTL: Wein- und Trinklieder
!!!ONB: ESAC (Essen Associative Code) Database: BOEHME
!!!AMT: simple triple
!!!AIN: vox
!!!EED: Helmut Schaffrath
!!!EEV: 1.0
!!Mel. ſpaniſchen Urſprungs.
!!@@COMMENT:"Gedicht vom Studenten Heinrich v. Mühler um 1840. Gedruckt ʒuerſt in: "Gedichte von
!!Heinrich d. Mühler". Berlin 1842. S. 163. - Die Melodie iſt die des ſpaniſchen Nationaltanʒes
!!"Cachucha". Dieſer war durch die ſpaniſche Tänʒerin Lola Monteʒ nach Deutſchland gekommen,
!!auch von der Elsler, Wirdiſch und Taglioni getanʒt, alſo damals ſehr beliebt, was daʒu beitrug,
!!daß das Lied ſich raſch verbreitete und ſeit 1843 in alle Taſchenlieder- und Kommersbücher überging."
!!@@END:
!!!Text: H. von Mühler
!!!URL-scan: https://archive.org/details/BoehmeVtLieder1895/page/n289/mode/2up
!!!ENC: Anna Maria Matuszewska
!!!EEV: 2024/05/07
*-	*-
